X:330
T:El Carmn de La Pola (Arrg.)
R:Xiraldilla
C:Tradicional
S:Msica Tradicional Asturiana, (C) Tello & Tito. Asturies, 2001.
S:http://pagina.de/MusTradAst <telloytito@asturies.org>
A:Asturies
G:Arrg.
Z:Les cuarenta principales
M:3/4
L:1/4
Q:3/4=62
K:E
G
|:"C#m"G2 E|"C#m"CEG|"G#m"G2 A/G/|"F#m"F2 G|
"A"A2 A|"C#m"ccc|"G#m"G2 E|[1 "C#m"C2 G :|[2 "C#m"CEG|
|"C#m"G2 E|"C#m"CEG|"C#m"G2 E|"C#m"CEG|
"C#m"G2 E|"C#m"CEG|"G#m"G2 A/G/|"F#m"F2 G|
|:"A"A2 A|"C#m"ccc|"G#m"G2 E/F/|"C#m"GGG|
"F#m"F2 D/E/|"B/G# / G#m"FFF|"A"E2 D|[1 "C#m"C2 G :|[2 "C#m" C3-|C2||
